assets/svg/section-bg.svg

<svg fill="none" height="459" viewBox="0 0 1407 459" width="1407" xmlns="http://www.w3.org/2000/svg" xmlns:xlink="http://www.w3.org/1999/xlink"><mask id="a" fill="#fff"><path clip-rule="evenodd" d="m717.324 19.2795c0-.2979.009-.5959.032-.8938.447-5.6796 5.042-9.89268 10.251-9.40387 12.655 1.18247 24.448-8.519325 26.843-22.08973.992-5.6004 5.964-9.2642 11.098-8.1841 5.14 1.0753 8.508 6.4895 7.516 12.08996-4.208 23.80754-24.886 40.83224-47.074 38.75594-4.939-.4609-8.666-4.9719-8.666-10.2744" fill="#fff" fill-rule="evenodd"/></mask><path d="m-98.3092-255.377c114.5918-.019 207.4582 92.817 207.4392 207.3389-.018 114.5217-92.9152 207.3881-207.5071 207.4071s-207.4579-92.8175-207.4399-207.3392c.019-114.5218 92.916-207.3888 207.5078-207.4068z" stroke="#eb4526" stroke-width="35"/><path d="m1079.6 385.527c83.42-.014 151.03 67.573 151.02 150.948s-67.65 150.985-151.07 150.998c-83.428.014-151.037-67.573-151.023-150.948.013-83.375 67.645-150.985 151.073-150.998z" stroke="#eb4526" stroke-width="25"/><path clip-rule="evenodd" d="m1345.58 63.178c-.1.0583-.2.1133-.31.1636-2 .9583-4.3.227-5.12-1.6311-2-4.5129-7.52-6.6077-12.56-4.7667-2.09.7584-4.27-.208-4.88-2.1564-.61-1.949.59-4.1467 2.67-4.905 8.85-3.2278 18.53.4427 22.04 8.3559.78 1.7612-.04 3.9038-1.84 4.9397" fill="#eb4526" fill-rule="evenodd"/><path d="m1357.94 55.0324c8.5 15.169 3.11 34.6127-12.13 43.405-15.24 8.7926-34.47 3.5526-42.97-11.6168-8.5-15.1691-3.11-34.6127 12.13-43.405 15.24-8.7924 34.47-3.5523 42.97 11.6168z" stroke="#eb4526" stroke-width="8"/><rect fill="#eb4526" height="54.089" rx="6.25161" transform="matrix(.866025 -.5 .488639 .872486 1344.07 108.173)" width="12.5032"/><path d="m-14.5727 250.604c-164.7083 44.162-333.9583-53.513-378.0423-218.1444-44.084-164.6306 53.685-333.9006 218.393-378.0636 164.70893-44.162 333.959 53.513 378.043 218.144 44.084 164.6314-53.685 333.901-218.3937 378.064z" stroke="#eb4526" stroke-width="35"/><path clip-rule="evenodd" d="m369.146 335.653c-.225-.129-.445-.266-.66-.413-4.084-2.804-5.231-8.05-2.561-11.705 6.482-8.883 4.377-21.864-4.797-29.549-3.784-3.175-4.35-8.462-1.267-11.804 3.081-3.349 8.651-3.493 12.435-.319 16.092 13.488 19.793 36.255 8.425 51.827-2.529 3.467-7.577 4.272-11.575 1.963" fill="#eb4526" fill-rule="evenodd"/><path d="m399.856 351.136c-20.202 33.984-64.601 45.453-99.211 25.455s-46.158-63.793-25.957-97.777c20.202-33.983 64.601-45.452 99.211-25.454s46.158 63.793 25.957 97.776z" stroke="#eb4526" stroke-width="15"/><rect fill="#eb4526" height="120.513" rx="13.9289" transform="matrix(.866025 .5 -.511276 .859417 280.645 382.869)" width="27.8578"/><path clip-rule="evenodd" d="m717.324 19.2795c0-.2979.009-.5959.032-.8938.447-5.6796 5.042-9.89268 10.251-9.40387 12.655 1.18247 24.448-8.519325 26.843-22.08973.992-5.6004 5.964-9.2642 11.098-8.1841 5.14 1.0753 8.508 6.4895 7.516 12.08996-4.208 23.80754-24.886 40.83224-47.074 38.75594-4.939-.4609-8.666-4.9719-8.666-10.2744" fill="#eb4526" fill-rule="evenodd"/><path d="m717.356 18.3857-19.938-1.5703-.001.0112zm10.251-9.40387-1.869 19.91257.008.0007zm26.843-22.08973-19.694-3.4898-.002.0139zm11.098-8.1841-4.117 19.57167.011.00216.01.00215zm7.516 12.08996-19.693-3.48986-.002.0093zm-47.074 38.75594 1.863-19.91297-.005-.00049zm11.334-10.2744c0 .1147-.004.3472-.029.6653l-39.878-3.1182c-.071.9139-.093 1.7424-.093 2.4529zm-.03.6765c-.298 3.7873-4.06 9.6417-11.556 8.9384l3.737-39.8251c-17.913-1.681-30.864 12.59966-32.057 27.7461zm-11.548 8.9391c24.335 2.2738 44.432-16.0503 48.399-38.52708l-39.391-6.95182c-.362 2.049-1.405 3.6374-2.586 4.6094-1.169.9615-2.141 1.0953-2.701 1.043zm48.397-38.51317c-.697 3.93463-5.276 9.461727-12.712 7.89774l8.234-39.14347c-17.705-3.724-32.226 9.1306-34.909 24.2661zm-12.691 7.90205c-6.8-1.42292-8.721-7.36345-8.081-10.97588l39.386 6.97969c2.625-14.81319-6.034-31.58219-23.112-35.15589zm-8.083-10.96658c-2.637 14.91914-15.022 23.3055-25.516 22.32353l-3.726 39.82597c33.882 3.1707 62.853-22.4924 68.632-55.18834zm-25.521 22.32304c6.79.63356 9.476 6.13666 9.476 9.63906h-40c0 14.1074 10.14 28.6326 26.808 30.1879z" fill="#eb4526" mask="url(#a)"/><circle cx="719.638" cy="-24.3624" r="81.6376" stroke="#eb4526" stroke-width="20" transform="matrix(0 1 -1 0 695.2756 -744.0004)"/><g fill="#eb4526"><circle cx="1199.02" cy="254.287" r="4" transform="matrix(-.99998124 -.00612607 .00612607 -.99998124 2396.459722 515.914506)"/><ellipse cx="1199.11" cy="239.787" rx="4" ry="4.5" transform="matrix(-.99998124 -.00612607 .00612607 -.99998124 2396.728548 486.915329)"/><ellipse cx="1199.2" cy="225.787" rx="4" ry="4.5" transform="matrix(-.99998124 -.00612607 .00612607 -.99998124 2396.994311 458.916143)"/><circle cx="1199.29" cy="211.288" r="4" transform="matrix(-.99998124 -.00612607 .00612607 -.99998124 2397.263131 429.918967)"/><circle cx="1184.7" cy="225.699" r="4.5" transform="matrix(-.99998124 -.00612607 .00612607 -.99998124 2367.995122 458.651317)"/><circle cx="1184.61" cy="239.698" r="4.5" transform="matrix(-.99998124 -.00612607 .00612607 -.99998124 2367.729365 486.648503)"/><circle cx="1170.61" cy="239.613" r="4.5" transform="matrix(-.99998124 -.00612607 .00612607 -.99998124 2339.730149 486.392739)"/><ellipse cx="1184.52" cy="254.198" rx="4.5" ry="4" transform="matrix(-.99998124 -.00612607 .00612607 -.99998124 2367.460539 515.647679)"/><ellipse cx="1170.52" cy="254.112" rx="4.5" ry="4" transform="matrix(-.99998124 -.00612607 .00612607 -.99998124 2339.461329 515.389916)"/><circle cx="1156.02" cy="254.024" r="4" transform="matrix(-.99998124 -.00612607 .00612607 -.99998124 2310.46214 515.12509)"/></g></svg>

<svg width="1407" height="459" viewBox="0 0 1407 459" fill="none" xmlns="http://www.w3.org/2000/svg">
<path d="M-98.3092 -255.377C16.2826 -255.396 109.149 -162.56 109.13 -48.0381C109.112 66.4836 16.2148 159.35 -98.3771 159.369C-212.969 159.388 -305.835 66.5515 -305.817 -47.9702C-305.798 -162.492 -212.901 -255.359 -98.3092 -255.377Z" stroke="#EB4526" stroke-width="35"/>
<path d="M1079.6 385.527C1163.02 385.513 1230.63 453.1 1230.62 536.475C1230.61 619.85 1162.97 687.46 1079.55 687.473C996.122 687.487 928.513 619.9 928.527 536.525C928.54 453.15 996.172 385.54 1079.6 385.527Z" stroke="#EB4526" stroke-width="25"/>
<path fill-rule="evenodd" clip-rule="evenodd" d="M1345.58 63.178C1345.48 63.2363 1345.38 63.2913 1345.27 63.3416C1343.27 64.2999 1340.97 63.5686 1340.15 61.7105C1338.15 57.1976 1332.63 55.1028 1327.59 56.9438C1325.5 57.7022 1323.32 56.7358 1322.71 54.7874C1322.1 52.8384 1323.3 50.6407 1325.38 49.8824C1334.23 46.6546 1343.91 50.3251 1347.42 58.2383C1348.2 59.9995 1347.38 62.1421 1345.58 63.178" fill="#EB4526"/>
<path d="M1357.94 55.0324C1366.44 70.2014 1361.05 89.6451 1345.81 98.4374C1330.57 107.23 1311.34 101.99 1302.84 86.8206C1294.34 71.6515 1299.73 52.2079 1314.97 43.4156C1330.21 34.6232 1349.44 39.8633 1357.94 55.0324Z" stroke="#EB4526" stroke-width="8"/>
<rect width="12.5032" height="54.089" rx="6.25161" transform="matrix(0.866025 -0.5 0.488639 0.872486 1344.07 108.173)" fill="#EB4526"/>
<path d="M-14.5727 250.604C-179.281 294.766 -348.531 197.091 -392.615 32.4596C-436.699 -132.171 -338.93 -301.441 -174.222 -345.604C-9.51307 -389.766 159.737 -292.091 203.821 -127.46C247.905 37.1714 150.136 206.441 -14.5727 250.604Z" stroke="#EB4526" stroke-width="35"/>
<path fill-rule="evenodd" clip-rule="evenodd" d="M369.146 335.653C368.921 335.524 368.701 335.387 368.486 335.24C364.402 332.436 363.255 327.19 365.925 323.535C372.407 314.652 370.302 301.671 361.128 293.986C357.344 290.811 356.778 285.524 359.861 282.182C362.942 278.833 368.512 278.689 372.296 281.863C388.388 295.351 392.089 318.118 380.721 333.69C378.192 337.157 373.144 337.962 369.146 335.653" fill="#EB4526"/>
<path d="M399.856 351.136C379.654 385.12 335.255 396.589 300.645 376.591C266.035 356.593 254.487 312.798 274.688 278.814C294.89 244.831 339.289 233.362 373.899 253.36C408.509 273.358 420.057 317.153 399.856 351.136Z" stroke="#EB4526" stroke-width="15"/>
<rect width="27.8578" height="120.513" rx="13.9289" transform="matrix(0.866025 0.5 -0.511276 0.859417 280.645 382.869)" fill="#EB4526"/>
<mask id="path-10-inside-1" fill="white">
<path fill-rule="evenodd" clip-rule="evenodd" d="M717.324 19.2795C717.324 18.9816 717.333 18.6836 717.356 18.3857C717.803 12.7061 722.398 8.49302 727.607 8.98183C740.262 10.1643 752.055 0.462505 754.45 -13.1079C755.442 -18.7083 760.414 -22.3721 765.548 -21.292C770.688 -20.2167 774.056 -14.8025 773.064 -9.20204C768.856 14.6055 748.178 31.6302 725.99 29.5539C721.051 29.093 717.324 24.582 717.324 19.2795"/>
</mask>
<path fill-rule="evenodd" clip-rule="evenodd" d="M717.324 19.2795C717.324 18.9816 717.333 18.6836 717.356 18.3857C717.803 12.7061 722.398 8.49302 727.607 8.98183C740.262 10.1643 752.055 0.462505 754.45 -13.1079C755.442 -18.7083 760.414 -22.3721 765.548 -21.292C770.688 -20.2167 774.056 -14.8025 773.064 -9.20204C768.856 14.6055 748.178 31.6302 725.99 29.5539C721.051 29.093 717.324 24.582 717.324 19.2795" fill="#EB4526"/>
<path d="M717.356 18.3857L697.418 16.8154L697.417 16.8266L717.356 18.3857ZM727.607 8.98183L725.738 28.8944L725.746 28.8951L727.607 8.98183ZM754.45 -13.1079L734.756 -16.5977L734.754 -16.5838L754.45 -13.1079ZM765.548 -21.292L761.431 -1.72033L761.442 -1.71817L761.452 -1.71602L765.548 -21.292ZM773.064 -9.20204L753.371 -12.6919L753.369 -12.6826L773.064 -9.20204ZM725.99 29.5539L727.853 9.64093L727.848 9.64044L725.99 29.5539ZM737.324 19.2795C737.324 19.3942 737.32 19.6267 737.295 19.9448L697.417 16.8266C697.346 17.7405 697.324 18.569 697.324 19.2795L737.324 19.2795ZM737.294 19.956C736.996 23.7433 733.234 29.5977 725.738 28.8944L729.475 -10.9307C711.562 -12.6117 698.611 1.66896 697.418 16.8154L737.294 19.956ZM725.746 28.8951C750.081 31.1689 770.178 12.8448 774.145 -9.63198L734.754 -16.5838C734.392 -14.5348 733.349 -12.9464 732.168 -11.9744C730.999 -11.0129 730.027 -10.8791 729.467 -10.9314L725.746 28.8951ZM774.143 -9.61807C773.446 -5.68344 768.867 -0.156343 761.431 -1.72033L769.665 -40.8638C751.96 -44.5878 737.439 -31.7332 734.756 -16.5977L774.143 -9.61807ZM761.452 -1.71602C754.652 -3.13894 752.731 -9.07947 753.371 -12.6919L792.757 -5.71221C795.382 -20.5254 786.723 -37.2944 769.645 -40.8681L761.452 -1.71602ZM753.369 -12.6826C750.732 2.23654 738.347 10.6229 727.853 9.64093L724.127 49.4669C758.009 52.6376 786.98 26.9745 792.759 -5.72144L753.369 -12.6826ZM727.848 9.64044C734.638 10.274 737.324 15.7771 737.324 19.2795L697.324 19.2795C697.324 33.3869 707.464 47.9121 724.132 49.4674L727.848 9.64044Z" fill="#EB4526" mask="url(#path-10-inside-1)"/>
<circle cx="719.638" cy="-24.3624" r="81.6376" transform="rotate(90 719.638 -24.3624)" stroke="#EB4526" stroke-width="20"/>
<circle cx="1199.02" cy="254.287" r="4" transform="rotate(-179.649 1199.02 254.287)" fill="#EB4526"/>
<ellipse cx="1199.11" cy="239.787" rx="4" ry="4.5" transform="rotate(-179.649 1199.11 239.787)" fill="#EB4526"/>
<ellipse cx="1199.2" cy="225.787" rx="4" ry="4.5" transform="rotate(-179.649 1199.2 225.787)" fill="#EB4526"/>
<circle cx="1199.29" cy="211.288" r="4" transform="rotate(-179.649 1199.29 211.288)" fill="#EB4526"/>
<circle cx="1184.7" cy="225.699" r="4.5" transform="rotate(-179.649 1184.7 225.699)" fill="#EB4526"/>
<circle cx="1184.61" cy="239.698" r="4.5" transform="rotate(-179.649 1184.61 239.698)" fill="#EB4526"/>
<circle cx="1170.61" cy="239.613" r="4.5" transform="rotate(-179.649 1170.61 239.613)" fill="#EB4526"/>
<ellipse cx="1184.52" cy="254.198" rx="4.5" ry="4" transform="rotate(-179.649 1184.52 254.198)" fill="#EB4526"/>
<ellipse cx="1170.52" cy="254.112" rx="4.5" ry="4" transform="rotate(-179.649 1170.52 254.112)" fill="#EB4526"/>
<circle cx="1156.02" cy="254.024" r="4" transform="rotate(-179.649 1156.02 254.024)" fill="#EB4526"/>
</svg>
